X:264
T:La Mariposa
Z:Fernando Formigo
Z:Jack Campin, http://www.campin.me.uk/
F:Jack Campin's Nine-Note Tunebook
% last edit 03-02-2013
S:a PDF book "Andean Melodies" off the web
G:Bolivian/Peruvian "morenada"
N:there are many versions of this on YouTube
M:2/4
L:1/16
Q:1/4=96
K:DMin
DEFG A3F |G3E  F3D|C2E2 G2c2|A2A2 A4 |
DEFG A3F |G3E  F3D|A2A2 AGFE|D2D2 D4:|
d3B  d3B |B2d2 d4 |c2A2 A2F2|F2A2 A4 |
G3F  E2A2|D2D2 D4 |B3G  B3G |G2d2 d4 |
c2A2 A2F2|F2A2 A4 |G3F  E2A2|D2D2 D4|]

